X:1
T:Ladies' Pandeletts -- Reel
R:reel
B:Ryan's Mammoth Collection
N: 381
Z: Contributed by Ray Davies,  ray:davies99.freeserve.co.uk
M:C|
L:1/8
K:Gm
vBdcA G2GB | AFcF dFcF | BdcA G2ag | fdcA AGG2 |
BdcA G2GB | AFcF dFcF | BdcA G2ag | fdcA AGG2 :|
|:a2af g2fg | a2ag fdde | fgaf g2ag | fdcA AGG2 |
a2af g2fg | a2ag fdde | fgaf gabg | fdcA AGG2 :|
